src/icons/IconMaxWidth/IconMaxWidth_size_xs.svg

<svg width="12" height="12" viewBox="0 0 12 12" xmlns="http://www.w3.org/2000/svg">
  <path d="M0 2H1V5.5L3 3.5V5.5H9V3.5L11 5.5V2H12V10H11V6.5L9 8.5V6.5H3V8.5L1 6.5V10H0V2Z" />
</svg>

<svg width="12" height="12" xmlns="http://www.w3.org/2000/svg">
  <path d="M0 2h1v3.5l2-2v2h6v-2l2 2V2h1v8h-1V6.5l-2 2v-2H3v2l-2-2V10H0V2z" />
</svg>
